svgs/nature/u1F301.layer8.svg

<svg xmlns="http://www.w3.org/2000/svg" viewBox="0 0 512 512" enable-background="new 0 0 512 512"><path fill="#FFD469" d="M54.183 339.285H45.79c-1.286 0-2.328-1.042-2.328-2.327V311.19c0-1.285 1.042-2.327 2.327-2.327h8.39c1.286 0 2.328 1.042 2.328 2.327v25.768c0 1.285-1.043 2.327-2.328 2.327zm26.906-1.778V311.74c0-1.286-1.045-2.328-2.33-2.328h-8.394c-1.285 0-2.327 1.042-2.327 2.327v25.765c0 1.285 1.042 2.327 2.327 2.327h8.394c1.286 0 2.328-1.042 2.328-2.327zm24.576 0V311.74c0-1.286-1.042-2.328-2.327-2.328h-8.394c-1.285 0-2.327 1.042-2.327 2.327v25.765c0 1.285 1.04 2.327 2.326 2.327h8.394c1.287 0 2.33-1.042 2.33-2.327zm24.58 0V311.74c0-1.286-1.043-2.328-2.328-2.328h-8.395c-1.285 0-2.327 1.042-2.327 2.327v25.765c0 1.285 1.04 2.327 2.326 2.327h8.394c1.285 0 2.327-1.042 2.327-2.327zm24.578 0V311.74c0-1.286-1.042-2.328-2.327-2.328h-8.395c-1.285 0-2.327 1.042-2.327 2.327v25.765c0 1.285 1.042 2.327 2.327 2.327h8.394c1.284 0 2.326-1.042 2.326-2.327zm-98.316-86.42v-25.77c0-1.284-1.043-2.326-2.328-2.326h-8.39c-1.286 0-2.328 1.045-2.328 2.33v25.768c0 1.285 1.042 2.327 2.327 2.327h8.39c1.286 0 2.328-1.042 2.328-2.327zm24.58 0v-25.77c0-1.284-1.044-2.326-2.33-2.326h-8.393c-1.285 0-2.327 1.045-2.327 2.33v25.768c0 1.285 1.043 2.327 2.328 2.327h8.394c1.285 0 2.327-1.042 2.327-2.327zm24.577 0v-25.77c0-1.284-1.042-2.326-2.327-2.326h-8.393c-1.285 0-2.327 1.045-2.327 2.33v25.768c0 1.285 1.042 2.327 2.327 2.327h8.394c1.286 0 2.33-1.042 2.33-2.327zm24.58 0v-25.77c0-1.284-1.043-2.326-2.328-2.326h-8.395c-1.285 0-2.327 1.045-2.327 2.33v25.768c0 1.285 1.04 2.327 2.326 2.327h8.395c1.285 0 2.327-1.042 2.327-2.327zm24.578 0v-25.77c0-1.284-1.042-2.326-2.327-2.326H144.1c-1.284 0-2.326 1.045-2.326 2.33v25.768c0 1.285 1.042 2.327 2.327 2.327h8.395c1.284 0 2.326-1.042 2.326-2.327zM56.51 385.377v-25.77c0-1.285-1.042-2.327-2.327-2.327H45.79c-1.286 0-2.328 1.043-2.328 2.328v25.768c0 1.285 1.042 2.327 2.327 2.327h8.39c1.286 0 2.328-1.042 2.328-2.327zm24.58 0v-25.77c0-1.285-1.043-2.327-2.328-2.327h-8.394c-1.285 0-2.327 1.043-2.327 2.328v25.768c0 1.285 1.045 2.327 2.33 2.327h8.394c1.285 0 2.327-1.042 2.327-2.327zm24.578 0v-25.77c0-1.285-1.042-2.327-2.327-2.327h-8.39c-1.285 0-2.327 1.043-2.327 2.328v25.768c0 1.285 1.043 2.327 2.328 2.327h8.395c1.286 0 2.328-1.042 2.328-2.327zm24.58 0v-25.77c0-1.285-1.043-2.327-2.328-2.327h-8.394c-1.285 0-2.327 1.043-2.327 2.328v25.768c0 1.285 1.04 2.327 2.324 2.327h8.394c1.284 0 2.326-1.042 2.326-2.327zm24.578 0v-25.77c0-1.285-1.042-2.327-2.327-2.327h-8.397c-1.285 0-2.327 1.043-2.327 2.328v25.768c0 1.285 1.042 2.327 2.327 2.327h8.394c1.284 0 2.326-1.042 2.326-2.327zm254.712-31.31V336.03c0-1.87-1.516-3.384-3.385-3.384h-12.21c-1.87 0-3.386 1.516-3.386 3.385v18.037c0 1.87 1.516 3.385 3.385 3.385h12.21c1.87 0 3.386-1.514 3.386-3.384zm31.474 0V336.03c0-1.87-1.516-3.384-3.385-3.384h-12.21c-1.87 0-3.386 1.516-3.386 3.385v18.037c0 1.87 1.52 3.385 3.388 3.385h12.21c1.87 0 3.386-1.514 3.386-3.384zm31.475 0V336.03c0-1.87-1.516-3.384-3.385-3.384h-12.21c-1.87 0-3.386 1.516-3.386 3.385v18.037c0 1.87 1.516 3.385 3.385 3.385h12.214c1.87 0 3.385-1.514 3.385-3.384zM241.224 371.89v-33.76c0-4.107-3.328-7.435-7.434-7.435h-16.083c-4.106 0-7.434 3.328-7.434 7.434v33.76c0 4.103 3.328 7.43 7.434 7.43h16.083c4.105 0 7.434-3.327 7.434-7.433z"/></svg>

<?xml version="1.0" encoding="iso-8859-1"?>
<!-- Generator: Adobe Illustrator 18.1.0, SVG Export Plug-In . SVG Version: 6.00 Build 0)  -->
<!DOCTYPE svg PUBLIC "-//W3C//DTD SVG 1.1//EN" "http://www.w3.org/Graphics/SVG/1.1/DTD/svg11.dtd">
<svg version="1.1" xmlns="http://www.w3.org/2000/svg" xmlns:xlink="http://www.w3.org/1999/xlink" x="0px" y="0px"
	 viewBox="0 0 512 512" enable-background="new 0 0 512 512" xml:space="preserve">
<g id="Layer_9">
	<path fill="#FFD469" d="M54.183,339.285h-8.394c-1.285,0-2.327-1.042-2.327-2.327V311.19c0-1.285,1.042-2.327,2.327-2.327h8.394
		c1.285,0,2.327,1.042,2.327,2.327v25.768C56.51,338.243,55.468,339.285,54.183,339.285z M81.089,337.507v-25.768
		c0-1.285-1.042-2.327-2.327-2.327h-8.394c-1.285,0-2.327,1.042-2.327,2.327v25.768c0,1.285,1.042,2.327,2.327,2.327h8.394
		C80.047,339.834,81.089,338.792,81.089,337.507z M105.668,337.507v-25.768c0-1.285-1.042-2.327-2.327-2.327h-8.394
		c-1.285,0-2.327,1.042-2.327,2.327v25.768c0,1.285,1.042,2.327,2.327,2.327h8.394C104.626,339.834,105.668,338.792,105.668,337.507
		z M130.247,337.507v-25.768c0-1.285-1.042-2.327-2.327-2.327h-8.394c-1.285,0-2.327,1.042-2.327,2.327v25.768
		c0,1.285,1.042,2.327,2.327,2.327h8.394C129.205,339.834,130.247,338.792,130.247,337.507z M154.826,337.507v-25.768
		c0-1.285-1.042-2.327-2.327-2.327h-8.394c-1.285,0-2.327,1.042-2.327,2.327v25.768c0,1.285,1.042,2.327,2.327,2.327h8.394
		C153.784,339.834,154.826,338.792,154.826,337.507z M56.51,251.086v-25.768c0-1.285-1.042-2.327-2.327-2.327h-8.394
		c-1.285,0-2.327,1.042-2.327,2.327v25.768c0,1.285,1.042,2.327,2.327,2.327h8.394C55.468,253.413,56.51,252.371,56.51,251.086z
		 M81.089,251.086v-25.768c0-1.285-1.042-2.327-2.327-2.327h-8.394c-1.285,0-2.327,1.042-2.327,2.327v25.768
		c0,1.285,1.042,2.327,2.327,2.327h8.394C80.047,253.413,81.089,252.371,81.089,251.086z M105.668,251.086v-25.768
		c0-1.285-1.042-2.327-2.327-2.327h-8.394c-1.285,0-2.327,1.042-2.327,2.327v25.768c0,1.285,1.042,2.327,2.327,2.327h8.394
		C104.626,253.413,105.668,252.371,105.668,251.086z M130.247,251.086v-25.768c0-1.285-1.042-2.327-2.327-2.327h-8.394
		c-1.285,0-2.327,1.042-2.327,2.327v25.768c0,1.285,1.042,2.327,2.327,2.327h8.394C129.205,253.413,130.247,252.371,130.247,251.086
		z M154.826,251.086v-25.768c0-1.285-1.042-2.327-2.327-2.327h-8.394c-1.285,0-2.327,1.042-2.327,2.327v25.768
		c0,1.285,1.042,2.327,2.327,2.327h8.394C153.784,253.413,154.826,252.371,154.826,251.086z M56.51,385.376v-25.768
		c0-1.285-1.042-2.327-2.327-2.327h-8.394c-1.285,0-2.327,1.042-2.327,2.327v25.768c0,1.285,1.042,2.327,2.327,2.327h8.394
		C55.468,387.703,56.51,386.661,56.51,385.376z M81.089,385.376v-25.768c0-1.285-1.042-2.327-2.327-2.327h-8.394
		c-1.285,0-2.327,1.042-2.327,2.327v25.768c0,1.285,1.042,2.327,2.327,2.327h8.394C80.047,387.703,81.089,386.661,81.089,385.376z
		 M105.668,385.376v-25.768c0-1.285-1.042-2.327-2.327-2.327h-8.394c-1.285,0-2.327,1.042-2.327,2.327v25.768
		c0,1.285,1.042,2.327,2.327,2.327h8.394C104.626,387.703,105.668,386.661,105.668,385.376z M130.247,385.376v-25.768
		c0-1.285-1.042-2.327-2.327-2.327h-8.394c-1.285,0-2.327,1.042-2.327,2.327v25.768c0,1.285,1.042,2.327,2.327,2.327h8.394
		C129.205,387.703,130.247,386.661,130.247,385.376z M154.826,385.376v-25.768c0-1.285-1.042-2.327-2.327-2.327h-8.394
		c-1.285,0-2.327,1.042-2.327,2.327v25.768c0,1.285,1.042,2.327,2.327,2.327h8.394C153.784,387.703,154.826,386.661,154.826,385.376
		z M409.538,354.067v-18.035c0-1.87-1.516-3.385-3.385-3.385h-12.211c-1.87,0-3.385,1.516-3.385,3.385v18.035
		c0,1.87,1.516,3.385,3.385,3.385h12.211C408.022,357.452,409.538,355.937,409.538,354.067z M441.012,354.067v-18.035
		c0-1.87-1.516-3.385-3.385-3.385h-12.211c-1.87,0-3.385,1.516-3.385,3.385v18.035c0,1.87,1.516,3.385,3.385,3.385h12.211
		C439.497,357.452,441.012,355.937,441.012,354.067z M472.487,354.067v-18.035c0-1.87-1.516-3.385-3.385-3.385h-12.211
		c-1.87,0-3.385,1.516-3.385,3.385v18.035c0,1.87,1.516,3.385,3.385,3.385h12.211C470.971,357.452,472.487,355.937,472.487,354.067z
		 M241.224,371.889v-33.76c0-4.106-3.328-7.434-7.434-7.434h-16.083c-4.106,0-7.434,3.328-7.434,7.434v33.76
		c0,4.106,3.328,7.434,7.434,7.434h16.083C237.895,379.324,241.224,375.995,241.224,371.889z"/>
</g>
<g id="Layer_1">
</g>
</svg>
